X: 35460
T: Rowley Burn
R: hornpipe
M: 4/4
K: Gmajor
(3def|gfgd ecAF|GFGB D2GF|EcAG FDEF|GABc d2 (3def|
gfgd ecAF|GFGB D2GF|EcAG FDEF|G2B2 G2:|
|:(3Bc^c|dBgd bgd^d|ecGc EGce|dBGB dBgd|agfe (3ded (3Bc^c|
dBgd bgd^d|ecGc EGce|dBdg fdfa|g2g2 g2:|

